X:1
T:Anglais
T:efter Alfred Petersson, Nttraby, Blekinge (SvL, Band 18, nr 280)
N:Svenska Ltar, Band 18 nr 280
O:Nttraby, Blekinge
R:Anglais
C:Alfred Petersson
M:2/4
L:1/16
Q:1/4=100
Z:Konverterad till abc-format av  Olle Paulsson 05-01-03
K:A
vA2.E.A .c2.A.c|.e2.f.e (dc)BA|G2EG B2GB|dcdB c2A2|
.A2E.A. .c2.A.c|.e2.f.e (dc)BA|G2EG B2GB|(dc)dB A2 z2:|
|:(ag)af (fe)ce|(ed)Bd (cA)ce|(ag)af (fe)ce|(ed)BG A2 z2:|
